X: 7
T: John Brennan's
Z: JACKB
S: https://thesession.org/tunes/404#setting47239
R: reel
M: 4/4
L: 1/8
K: Dmaj
|:D2FA d2ed|cdBd AF F2|BAGB ADFA|BAGF EGFE|
D2FA d2ed|cdBd ADFA|BAGB ABde|faeg fdd2:|
f2df e2de|fedB AF F2|BAGB ADFA|BAGF E3g|
fAdf e2de|fedB ADFA|BAGB ABde|faeg fdde|
f2df efde|fedB A2FA|BAGB ADFA|BAGF EGFE|
D2FA d2ed|cdBd AF F2|BAGB ABde|faeg fdd2||

